X: 34038
T: Reel De Denis Magee
R: reel
M: 4/4
K: Gmajor
dedB edBG|AcBA GEDG|dedB edBG|AcBA G2Bc|
dedB edBG|AcBA GEDG|dedB edBG|AcBA G4|
dedB edBG|AcBA GEDG|dedB edBG|AcBA G2Bc||
dedB A2FD|ADFD EDAD|dedB ADFD|EDEF G2Bc|
dedB A2FD|ADFD EDAD|dedB ADFD|EDEF G2AB||
c3A B3G|AGFE DFAB|c3A B3G|AcBA G2AB|
c3A B3G|AGFE DFAB|c3A B3G|AcBA G4||

